icon-themes/breeze_svg/cmd/sc_basicshapes.can.svg

<svg viewBox="0 0 16 16" xmlns="http://www.w3.org/2000/svg"><path d="m8 2a6 4 0 0 0 -6 4 6 4 0 0 0 6 4 6 4 0 0 0 6-4 6 4 0 0 0 -6-4z" fill="#b3b3b3"/><path d="m2 6v4c0 2.209139 2.6862984 4 6 4 3.313702 0 6-1.790861 6-4v-4c0 2.2091389-2.686298 4-6 4-3.3137016 0-6-1.7908611-6-4z" fill="#4d4d4d"/></svg>

<svg xmlns="http://www.w3.org/2000/svg" viewBox="0 0 16 16">
 <path 
     style="fill:#b3b3b3" 
     d="M 8 2 A 6 4 0 0 0 2 6 A 6 4 0 0 0 8 10 A 6 4 0 0 0 14 6 A 6 4 0 0 0 8 2 z "
     />
 <path 
     style="fill:#4d4d4d" 
     d="M 2 6 L 2 10 C 2 12.209139 4.6862984 14 8 14 C 11.313702 14 14 12.209139 14 10 L 14 6 C 14 8.2091389 11.313702 10 8 10 C 4.6862984 10 2 8.2091389 2 6 z "
     />
 </svg>
